X:252
T:West Fork Gals I
R: reel
M: C|
K: D
|"D"f2f2d2ef|"G"g2g2B2(e2|"A"e2)edc2A2| ABAG "D"F2D2|
"D"f2f2d2ef|"G"g2g2B2(e2|"A"e2)edc2A2| ABc2"D"d4:|
|:"D"A2AAF2A2|d2dAF2A2|"A".G2 .F2.E2 EF| .G2 .F2.E2 (e2 |
"A"e2) ed c2A2|ABAG"D"F2D2 | d2d2"A"dege| "D"f2d2d4:|
